exports/us-education-expenditure-as-share-of-gdp-public-and-private_v1_850x600.svg

<svg xmlns="http://www.w3.org/2000/svg" version="1.1" style="background-color:#fff;-webkit-font-smoothing:antialiased" width="850" height="600" font-family="'Helvetica Neue',Helvetica,Arial,sans-serif" font-size="18" text-rendering="optimizeLegibility"><g class="ChartTab"><g class="HeaderView"><g opacity=".8" transform="matrix(.31 0 0 .31 770 15)"><a xmlns:xlink="http://www.w3.org/1999/xlink" xlink:href="https://ourworldindata.org" target="_blank"><g><path fill="#1B2543" d="M0 0h211.2v130.1H0z"/><path fill="#E63912" d="M0 112.2h211.2v17.9H0z"/><g><path fill="none" d="M1.2 12.3h210.2v99.2H1.2z"/><path fill="#FFF" d="M37.8 32.2c0 12.7-7.7 19.4-17.1 19.4-9.7 0-16.6-7.5-16.6-18.7 0-11.7 7.3-19.3 17.1-19.3 10.1.1 16.6 7.7 16.6 18.6zm-28.6.6c0 7.9 4.3 14.9 11.8 14.9 7.5 0 11.8-6.9 11.8-15.3 0-7.3-3.8-14.9-11.8-14.9-7.9 0-11.8 7.3-11.8 15.3zM62.7 43.8c0 2.7.1 5.1.2 7.2h-4.3l-.3-4.3h-.1c-1.3 2.1-4 4.9-8.8 4.9-4.2 0-9.1-2.3-9.1-11.6V24.6h4.8v14.6c0 5 1.5 8.4 5.9 8.4 3.2 0 5.5-2.2 6.3-4.4.3-.7.4-1.6.4-2.5V24.6h4.8v19.2zM67.3 32.8c0-3.1-.1-5.8-.2-8.2h4.2l.2 5.2h.2c1.2-3.5 4.1-5.8 7.3-5.8.5 0 .9.1 1.4.2v4.5c-.5-.1-1-.2-1.6-.2-3.4 0-5.8 2.6-6.5 6.2-.1.7-.2 1.4-.2 2.2V51h-4.8V32.8zM95.4 51L86 14.2h5l4.4 18.6c1.1 4.6 2.1 9.2 2.7 12.7h.1c.6-3.7 1.8-8 3-12.8l4.9-18.5h5l4.5 18.7c1 4.4 2 8.7 2.6 12.6h.1c.8-4 1.8-8.1 3-12.7l4.9-18.5h4.9L120.6 51h-5L111 31.9c-1.1-4.7-1.9-8.3-2.4-12h-.1c-.7 3.7-1.5 7.3-2.8 12L100.4 51h-5zM154.9 37.6c0 9.8-6.8 14-13.2 14-7.2 0-12.7-5.2-12.7-13.6 0-8.8 5.8-14 13.1-14 7.7 0 12.8 5.5 12.8 13.6zm-21 .3c0 5.8 3.3 10.1 8 10.1 4.6 0 8-4.3 8-10.3 0-4.5-2.2-10.1-7.9-10.1s-8.1 5.2-8.1 10.3zM158.2 32.8c0-3.1-.1-5.8-.2-8.2h4.2l.2 5.2h.2c1.2-3.5 4.1-5.8 7.3-5.8.5 0 .9.1 1.4.2v4.5c-.5-.1-1-.2-1.6-.2-3.4 0-5.8 2.6-6.5 6.2-.1.7-.2 1.4-.2 2.2V51h-4.8V32.8zM173.5 12.3h4.8V51h-4.8V12.3zM206.5 12.3v31.9c0 2.3.1 5 .2 6.8h-4.3l-.2-4.6h-.2c-1.5 2.9-4.7 5.2-9 5.2-6.4 0-11.3-5.4-11.3-13.4-.1-8.8 5.4-14.2 11.9-14.2 4 0 6.8 1.9 8 4h.1V12.3h4.8zm-4.8 23.1c0-.6-.1-1.4-.2-2a7 7 0 00-6.9-5.6c-5 0-7.9 4.4-7.9 10.2 0 5.3 2.6 9.8 7.8 9.8 3.2 0 6.2-2.1 7.1-5.7.2-.7.2-1.3.2-2.1v-4.6zM42.8 64c.1 1.6-1.1 2.9-3.1 2.9-1.7 0-2.9-1.3-2.9-2.9 0-1.7 1.3-3 3-3 1.9 0 3 1.3 3 3zm-5.4 33.8V71.4h4.8v26.4h-4.8zM47.5 78.6c0-2.7-.1-5-.2-7.1h4.3l.3 4.4h.1c1.3-2.5 4.4-5 8.8-5 3.7 0 9.4 2.2 9.4 11.2v15.8h-4.8V82.6c0-4.3-1.6-7.8-6.1-7.8-3.2 0-5.6 2.2-6.5 4.9-.2.6-.3 1.4-.3 2.2v15.9h-4.8V78.6zM84 61.6c2.9-.4 6.3-.8 10.1-.8 6.8 0 11.7 1.6 14.9 4.6 3.3 3 5.2 7.3 5.2 13.2 0 6-1.9 10.9-5.3 14.3-3.4 3.4-9.1 5.3-16.3 5.3-3.4 0-6.2-.2-8.6-.4V61.6zm4.8 32.5c1.2.2 3 .3 4.8.3 10.2 0 15.7-5.7 15.7-15.6.1-8.7-4.9-14.2-14.9-14.2-2.5 0-4.3.2-5.6.5v29zM132.1 97.8l-.4-3.3h-.2a9.79 9.79 0 01-8.1 3.9c-5.4 0-8.1-3.8-8.1-7.6 0-6.4 5.7-9.9 15.9-9.8v-.5c0-2.2-.6-6.1-6-6.1-2.5 0-5 .8-6.9 2l-1.1-3.2c2.2-1.4 5.4-2.3 8.7-2.3 8.1 0 10.1 5.5 10.1 10.8v9.9c0 2.3.1 4.5.4 6.3h-4.3zm-.7-13.4c-5.3-.1-11.2.8-11.2 5.9 0 3.1 2.1 4.6 4.5 4.6 3.4 0 5.6-2.2 6.4-4.4.2-.5.3-1 .3-1.5v-4.6zM146.6 63.9v7.6h6.9v3.7h-6.9v14.2c0 3.3.9 5.1 3.6 5.1 1.3 0 2.2-.2 2.8-.3l.2 3.6c-.9.4-2.4.7-4.3.7-2.2 0-4-.7-5.2-2-1.4-1.4-1.9-3.8-1.9-6.9V75.1h-4.1v-3.7h4.1v-6.3l4.8-1.2zM171.4 97.8l-.4-3.3h-.2a9.79 9.79 0 01-8.1 3.9c-5.4 0-8.1-3.8-8.1-7.6 0-6.4 5.7-9.9 15.9-9.8v-.5c0-2.2-.6-6.1-6-6.1-2.5 0-5 .8-6.9 2l-1.1-3.2c2.2-1.4 5.4-2.3 8.7-2.3 8.1 0 10.1 5.5 10.1 10.8v9.9c0 2.3.1 4.5.4 6.3h-4.3zm-.7-13.4c-5.3-.1-11.2.8-11.2 5.9 0 3.1 2.1 4.6 4.5 4.6 3.4 0 5.6-2.2 6.4-4.4.2-.5.3-1 .3-1.5v-4.6z"/></g></g></a></g><a href="https://ourworldindata.org/grapher/us-education-expenditure-as-share-of-gdp-public-and-private-institutions" target="_blank"><text font-size="21.6" x="15" y="32.3" fill="#555"><tspan x="15" y="32.28">US education expenditure as share of GDP (public and private institutions)</tspan></text></a><text font-size="14.4" x="15" y="50.1" fill="#666"><tspan x="15" y="50.12">Expenditures of educational institutions in the US, by control of institution (public or private)</tspan></text></g><g class="StackedArea"><defs><clipPath id="a"><path d="M43.49 0h820v963h-820z"/></clipPath></defs><g class="AxisBoxView"><g class="HorizontalAxis" fill="#666" text-anchor="middle" font-size="16.2"><text x="43.5" y="556.5">1950</text><text x="144.5" y="556.5">1960</text><text x="245.5" y="556.5">1970</text><text x="346.5" y="556.5">1980</text><text x="447.5" y="556.5">1990</text><text x="548.5" y="556.5">2000</text><text x="649.4" y="556.5">2010</text><text x="699.9" y="556.5">2015</text></g><g class="VerticalAxis" fill="#666" dominant-baseline="middle" text-anchor="end" font-size="16.2"><text x="38.49" y="535.3">0%</text><text x="38.49" y="474.4">1%</text><text x="38.49" y="413.5">2%</text><text x="38.49" y="352.6">3%</text><text x="38.49" y="291.7">4%</text><text x="38.49" y="230.8">5%</text><text x="38.49" y="169.9">6%</text><text x="38.49" y="109">7%</text></g><g class="AxisGridLines"><path stroke="#ccc" d="M43.49 535.3h656.45"/><path stroke="#ddd" stroke-dasharray="3,2" d="M43.49 474.4h656.45M43.49 413.5h656.45M43.49 352.6h656.45M43.49 291.7h656.45M43.49 230.8h656.45M43.49 169.9h656.45M43.49 109h656.45"/></g><g class="AxisGridLines" stroke="#ddd" stroke-dasharray="3,2"><path d="M43.5 535.3V75M144.5 535.3V75M245.5 535.3V75M346.5 535.3V75M447.5 535.3V75M548.5 535.3V75M649.4 535.3V75"/></g></g><g clip-path="url(#a)"><g class="HeightedLegend clickable"><g class="legendMark"><path fill="#34983f" d="M704.94 283.65h10v2.5h-10z"/><text font-size="14.4" x="719.9" y="273.7" fill="#333"><tspan x="719.94" y="273.72">Public education</tspan><tspan x="719.94" y="289.56">expenditure in the</tspan><tspan x="719.94" y="305.4">US</tspan></text></g><g class="legendMark"><path fill="#3360a9" d="M704.94 492.15h10v2.5h-10z"/><text font-size="14.4" x="719.9" y="482.2" fill="#333"><tspan x="719.94" y="482.22">Private education</tspan><tspan x="719.94" y="498.06">expenditure in the</tspan><tspan x="719.94" y="513.9">US</tspan></text></g></g><g class="Areas"><path d="M43.5 504.8l101-9.5 101-18.3 10.1.5 10.1.9 10.1 2.1 10.1.6 10.1-1.9 10.1.2 10.1.5 10.1 1.3 10.1.2 10.1-2.2 10.1-.8 10.1-4 10.1-.5 10.1.5 10.1-.8 10.1-1.4 10.1-2.4h10.1l10.1-.5 10.1-2.5 10.1-3.4 10.1-.8 10.1-.1 10.1 1 10.1-.3 10.1.4 10.1 1.1 10.1 1.4 10.1 1.4 10.1-.4 10.1-2.8 10.1-3.3 10.1-1.8 10.1 1.2 10.1.2 10.1-.2 10-2.1 10.1-4.3 10.1-5.9 10.1.7 10.1-1.1 10.1 1.1 10.1.4 10.1.4 10.1 1.8.04 83.9H43.5" fill="#3360a9" fill-opacity=".7" class="United-States_1-area"/><path d="M43.5 363l101-77.9 101-113.4 10.1-9.7 10.1 9.9 10.1 9.9 10.1-4.7 10.1-16.5 10.1 4.9 10.1 14.2 10.1 13.1 10.1 9.9 10.1-8 10.1 6 10.1-12.9 10.1 4.9 10.1 9.5 10.1-2.3 10.1-8.7 10.1-7.3 10.1 1.5 10.1-8.8 10.1-13.9 10.1-17.4 10.1.7h10.1l10.1 5.3 10.1-1.6 10.1 3.2 10.1 1.1 10.1-1 10.1 1.6 10.1-3.8 10.1-19.8 10.1-13.4 10.1-3.3 10.1 9 10.1 4.5 10.1.8 10-7.3 10.1-22.5L639.3 75l10.1 12.2 10.1 6.8 10.1 12.7 10.1 7 10.1 2.7 10.1 1.9v333.1l-10.1-1.8-10.1-.4-10.1-.4-10.1-1.1-10.1 1.1-10.1-.7-10.1 5.9-10.1 4.3-10 2.1-10.1.2-10.1-.2-10.1-1.2-10.1 1.8-10.1 3.3-10.1 2.8-10.1.4-10.1-1.4-10.1-1.4-10.1-1.1-10.1-.4-10.1.3-10.1-1-10.1.1-10.1.8-10.1 3.4-10.1 2.5-10.1.5h-10.1l-10.1 2.4-10.1 1.4-10.1.8-10.1-.5-10.1.5-10.1 4-10.1.8-10.1 2.2-10.1-.2-10.1-1.3-10.1-.5-10.1-.2-10.1 1.9-10.1-.6-10.1-2.1-10.1-.9-10.1-.5-101 18.3-101 9.5" fill="#34983f" fill-opacity=".7" class="United-States_0-area"/><path stroke-linecap="round" d="M43.5 504.8l101-9.5 101-18.3 10.1.5 10.1.9 10.1 2.1 10.1.6 10.1-1.9 10.1.2 10.1.5 10.1 1.3 10.1.2 10.1-2.2 10.1-.8 10.1-4 10.1-.5 10.1.5 10.1-.8 10.1-1.4 10.1-2.4h10.1l10.1-.5 10.1-2.5 10.1-3.4 10.1-.8 10.1-.1 10.1 1 10.1-.3 10.1.4 10.1 1.1 10.1 1.4 10.1 1.4 10.1-.4 10.1-2.8 10.1-3.3 10.1-1.8 10.1 1.2 10.1.2 10.1-.2 10-2.1 10.1-4.3 10.1-5.9 10.1.7 10.1-1.1 10.1 1.1 10.1.4 10.1.4 10.1 1.8" stroke="#2B508D" stroke-opacity=".7" stroke-width=".5" fill="none" class="United-States_1-border"/><path stroke-linecap="round" d="M43.5 363l101-77.9 101-113.4 10.1-9.7 10.1 9.9 10.1 9.9 10.1-4.7 10.1-16.5 10.1 4.9 10.1 14.2 10.1 13.1 10.1 9.9 10.1-8 10.1 6 10.1-12.9 10.1 4.9 10.1 9.5 10.1-2.3 10.1-8.7 10.1-7.3 10.1 1.5 10.1-8.8 10.1-13.9 10.1-17.4 10.1.7h10.1l10.1 5.3 10.1-1.6 10.1 3.2 10.1 1.1 10.1-1 10.1 1.6 10.1-3.8 10.1-19.8 10.1-13.4 10.1-3.3 10.1 9 10.1 4.5 10.1.8 10-7.3 10.1-22.5L639.3 75l10.1 12.2 10.1 6.8 10.1 12.7 10.1 7 10.1 2.7 10.1 1.9" stroke="#2C7F35" stroke-opacity=".7" stroke-width=".5" fill="none" class="United-States_0-border"/></g></g></g><g class="SourcesFooter" fill="#777"><g class="clickable" fill="#777"><text font-size="12.6" x="15" y="581.6"><tspan x="15" y="581.58">Source: NCES (2014)</tspan></text></g><text font-size="12.6" x="535.8" y="581.6"><tspan x="535.75" y="581.58"><a target="_blank" href="https://ourworldindata.org/financing-education" fill="#777">OurWorldInData.org/financing-education</a> • <a href="http://creativecommons.org/licenses/by-sa/4.0/deed.en_US" target="_blank" fill="#777">CC BY-SA</a></tspan></text></g></g></svg>

<svg xmlns="http://www.w3.org/2000/svg" version="1.1" style="font-family: 'Helvetica Neue', Helvetica, Arial, sans-serif; font-size: 18px; background-color: white; text-rendering: optimizeLegibility; -webkit-font-smoothing: antialiased;" width="850" height="600"><g class="ChartTab"><g class="HeaderView"><g opacity="0.8" transform="translate(770, 15) scale(0.31)"><a xmlns:xlink="http://www.w3.org/1999/xlink" xlink:href="https://ourworldindata.org" target="_blank"><g><rect x="0" y="0" fill="#1B2543" width="211.2" height="130.1"/><rect x="0" y="112.2" fill="#E63912" width="211.2" height="17.9"/><g><rect x="1.2" y="12.3" fill="none" width="210.2" height="99.2"/><path fill="#FFFFFF" d="M37.8,32.2c0,12.7-7.7,19.4-17.1,19.4c-9.7,0-16.6-7.5-16.6-18.7c0-11.7,7.3-19.3,17.1-19.3 C31.3,13.7,37.8,21.3,37.8,32.2z M9.2,32.8c0,7.9,4.3,14.9,11.8,14.9c7.5,0,11.8-6.9,11.8-15.3c0-7.3-3.8-14.9-11.8-14.9 C13.1,17.5,9.2,24.8,9.2,32.8z"/><path fill="#FFFFFF" d="M62.7,43.8c0,2.7,0.1,5.1,0.2,7.2h-4.3l-0.3-4.3h-0.1c-1.3,2.1-4,4.9-8.8,4.9c-4.2,0-9.1-2.3-9.1-11.6 V24.6h4.8v14.6c0,5,1.5,8.4,5.9,8.4c3.2,0,5.5-2.2,6.3-4.4c0.3-0.7,0.4-1.6,0.4-2.5V24.6h4.8V43.8z"/><path fill="#FFFFFF" d="M67.3,32.8c0-3.1-0.1-5.8-0.2-8.2h4.2l0.2,5.2h0.2c1.2-3.5,4.1-5.8,7.3-5.8c0.5,0,0.9,0.1,1.4,0.2v4.5 c-0.5-0.1-1-0.2-1.6-0.2c-3.4,0-5.8,2.6-6.5,6.2c-0.1,0.7-0.2,1.4-0.2,2.2V51h-4.8V32.8z"/><path fill="#FFFFFF" d="M95.4,51l-9.4-36.8h5l4.4,18.6c1.1,4.6,2.1,9.2,2.7,12.7h0.1c0.6-3.7,1.8-8,3-12.8l4.9-18.5h5l4.5,18.7 c1,4.4,2,8.7,2.6,12.6h0.1c0.8-4,1.8-8.1,3-12.7l4.9-18.5h4.9L120.6,51h-5L111,31.9c-1.1-4.7-1.9-8.3-2.4-12h-0.1 c-0.7,3.7-1.5,7.3-2.8,12L100.4,51H95.4z"/><path fill="#FFFFFF" d="M154.9,37.6c0,9.8-6.8,14-13.2,14c-7.2,0-12.7-5.2-12.7-13.6c0-8.8,5.8-14,13.1-14 C149.8,24,154.9,29.5,154.9,37.6z M133.9,37.9c0,5.8,3.3,10.1,8,10.1c4.6,0,8-4.3,8-10.3c0-4.5-2.2-10.1-7.9-10.1 C136.3,27.6,133.9,32.8,133.9,37.9z"/><path fill="#FFFFFF" d="M158.2,32.8c0-3.1-0.1-5.8-0.2-8.2h4.2l0.2,5.2h0.2c1.2-3.5,4.1-5.8,7.3-5.8c0.5,0,0.9,0.1,1.4,0.2v4.5 c-0.5-0.1-1-0.2-1.6-0.2c-3.4,0-5.8,2.6-6.5,6.2c-0.1,0.7-0.2,1.4-0.2,2.2V51h-4.8V32.8z"/><path fill="#FFFFFF" d="M173.5,12.3h4.8V51h-4.8V12.3z"/><path fill="#FFFFFF" d="M206.5,12.3v31.9c0,2.3,0.1,5,0.2,6.8h-4.3l-0.2-4.6H202c-1.5,2.9-4.7,5.2-9,5.2 c-6.4,0-11.3-5.4-11.3-13.4c-0.1-8.8,5.4-14.2,11.9-14.2c4,0,6.8,1.9,8,4h0.1V12.3H206.5z M201.7,35.4c0-0.6-0.1-1.4-0.2-2 c-0.7-3.1-3.3-5.6-6.9-5.6c-5,0-7.9,4.4-7.9,10.2c0,5.3,2.6,9.8,7.8,9.8c3.2,0,6.2-2.1,7.1-5.7c0.2-0.7,0.2-1.3,0.2-2.1V35.4z"/><path fill="#FFFFFF" d="M42.8,64c0.1,1.6-1.1,2.9-3.1,2.9c-1.7,0-2.9-1.3-2.9-2.9c0-1.7,1.3-3,3-3C41.7,61,42.8,62.3,42.8,64z M37.4,97.8V71.4h4.8v26.4H37.4z"/><path fill="#FFFFFF" d="M47.5,78.6c0-2.7-0.1-5-0.2-7.1h4.3l0.3,4.4h0.1c1.3-2.5,4.4-5,8.8-5c3.7,0,9.4,2.2,9.4,11.2v15.8h-4.8 V82.6c0-4.3-1.6-7.8-6.1-7.8c-3.2,0-5.6,2.2-6.5,4.9c-0.2,0.6-0.3,1.4-0.3,2.2v15.9h-4.8V78.6z"/><path fill="#FFFFFF" d="M84,61.6c2.9-0.4,6.3-0.8,10.1-0.8c6.8,0,11.7,1.6,14.9,4.6c3.3,3,5.2,7.3,5.2,13.2c0,6-1.9,10.9-5.3,14.3 c-3.4,3.4-9.1,5.3-16.3,5.3c-3.4,0-6.2-0.2-8.6-0.4V61.6z M88.8,94.1c1.2,0.2,3,0.3,4.8,0.3c10.2,0,15.7-5.7,15.7-15.6 c0.1-8.7-4.9-14.2-14.9-14.2c-2.5,0-4.3,0.2-5.6,0.5V94.1z"/><path fill="#FFFFFF" d="M132.1,97.8l-0.4-3.3h-0.2c-1.5,2.1-4.3,3.9-8.1,3.9c-5.4,0-8.1-3.8-8.1-7.6c0-6.4,5.7-9.9,15.9-9.8v-0.5 c0-2.2-0.6-6.1-6-6.1c-2.5,0-5,0.8-6.9,2l-1.1-3.2c2.2-1.4,5.4-2.3,8.7-2.3c8.1,0,10.1,5.5,10.1,10.8v9.9c0,2.3,0.1,4.5,0.4,6.3 H132.1z M131.4,84.4c-5.3-0.1-11.2,0.8-11.2,5.9c0,3.1,2.1,4.6,4.5,4.6c3.4,0,5.6-2.2,6.4-4.4c0.2-0.5,0.3-1,0.3-1.5V84.4z"/><path fill="#FFFFFF" d="M146.6,63.9v7.6h6.9v3.7h-6.9v14.2c0,3.3,0.9,5.1,3.6,5.1c1.3,0,2.2-0.2,2.8-0.3l0.2,3.6 c-0.9,0.4-2.4,0.7-4.3,0.7c-2.2,0-4-0.7-5.2-2c-1.4-1.4-1.9-3.8-1.9-6.9V75.1h-4.1v-3.7h4.1v-6.3L146.6,63.9z"/><path fill="#FFFFFF" d="M171.4,97.8l-0.4-3.3h-0.2c-1.5,2.1-4.3,3.9-8.1,3.9c-5.4,0-8.1-3.8-8.1-7.6c0-6.4,5.7-9.9,15.9-9.8v-0.5 c0-2.2-0.6-6.1-6-6.1c-2.5,0-5,0.8-6.9,2l-1.1-3.2c2.2-1.4,5.4-2.3,8.7-2.3c8.1,0,10.1,5.5,10.1,10.8v9.9c0,2.3,0.1,4.5,0.4,6.3 H171.4z M170.7,84.4c-5.3-0.1-11.2,0.8-11.2,5.9c0,3.1,2.1,4.6,4.5,4.6c3.4,0,5.6-2.2,6.4-4.4c0.2-0.5,0.3-1,0.3-1.5V84.4z"/></g></g></a></g><a href="https://ourworldindata.org/grapher/us-education-expenditure-as-share-of-gdp-public-and-private-institutions" target="_blank"><text font-size="21.60" x="15.0" y="32.3" fill="#555"><tspan x="15" y="32.279999999999994">US education expenditure as share of GDP (public and private institutions)</tspan></text></a><text font-size="14.40" x="15.0" y="50.1" fill="#666"><tspan x="15" y="50.11999999999999">Expenditures of educational institutions in the US, by control of institution (public or private)</tspan></text></g><g class="StackedArea"><defs><clipPath id="boundsClip-433"><rect x="43.49" y="0" width="820" height="963"></rect></clipPath></defs><g class="AxisBoxView"><g class="HorizontalAxis"><text x="43.5" y="556.5" fill="#666" text-anchor="middle" font-size="16.2">1950</text><text x="144.5" y="556.5" fill="#666" text-anchor="middle" font-size="16.2">1960</text><text x="245.5" y="556.5" fill="#666" text-anchor="middle" font-size="16.2">1970</text><text x="346.5" y="556.5" fill="#666" text-anchor="middle" font-size="16.2">1980</text><text x="447.5" y="556.5" fill="#666" text-anchor="middle" font-size="16.2">1990</text><text x="548.5" y="556.5" fill="#666" text-anchor="middle" font-size="16.2">2000</text><text x="649.4" y="556.5" fill="#666" text-anchor="middle" font-size="16.2">2010</text><text x="699.9" y="556.5" fill="#666" text-anchor="middle" font-size="16.2">2015</text></g><g class="VerticalAxis"><text x="38.49" y="535.3" fill="#666" dominant-baseline="middle" text-anchor="end" font-size="16.2">0%</text><text x="38.49" y="474.4" fill="#666" dominant-baseline="middle" text-anchor="end" font-size="16.2">1%</text><text x="38.49" y="413.5" fill="#666" dominant-baseline="middle" text-anchor="end" font-size="16.2">2%</text><text x="38.49" y="352.6" fill="#666" dominant-baseline="middle" text-anchor="end" font-size="16.2">3%</text><text x="38.49" y="291.7" fill="#666" dominant-baseline="middle" text-anchor="end" font-size="16.2">4%</text><text x="38.49" y="230.8" fill="#666" dominant-baseline="middle" text-anchor="end" font-size="16.2">5%</text><text x="38.49" y="169.9" fill="#666" dominant-baseline="middle" text-anchor="end" font-size="16.2">6%</text><text x="38.49" y="109" fill="#666" dominant-baseline="middle" text-anchor="end" font-size="16.2">7%</text></g><g class="AxisGridLines"><line x1="43.49" y1="535.3" x2="699.94" y2="535.3" stroke="#ccc"></line><line x1="43.49" y1="474.4" x2="699.94" y2="474.4" stroke="#ddd" stroke-dasharray="3,2"></line><line x1="43.49" y1="413.5" x2="699.94" y2="413.5" stroke="#ddd" stroke-dasharray="3,2"></line><line x1="43.49" y1="352.6" x2="699.94" y2="352.6" stroke="#ddd" stroke-dasharray="3,2"></line><line x1="43.49" y1="291.7" x2="699.94" y2="291.7" stroke="#ddd" stroke-dasharray="3,2"></line><line x1="43.49" y1="230.8" x2="699.94" y2="230.8" stroke="#ddd" stroke-dasharray="3,2"></line><line x1="43.49" y1="169.9" x2="699.94" y2="169.9" stroke="#ddd" stroke-dasharray="3,2"></line><line x1="43.49" y1="109" x2="699.94" y2="109" stroke="#ddd" stroke-dasharray="3,2"></line></g><g class="AxisGridLines"><line x1="43.5" y1="535.30" x2="43.5" y2="75.00" stroke="#ddd" stroke-dasharray="3,2"></line><line x1="144.5" y1="535.30" x2="144.5" y2="75.00" stroke="#ddd" stroke-dasharray="3,2"></line><line x1="245.5" y1="535.30" x2="245.5" y2="75.00" stroke="#ddd" stroke-dasharray="3,2"></line><line x1="346.5" y1="535.30" x2="346.5" y2="75.00" stroke="#ddd" stroke-dasharray="3,2"></line><line x1="447.5" y1="535.30" x2="447.5" y2="75.00" stroke="#ddd" stroke-dasharray="3,2"></line><line x1="548.5" y1="535.30" x2="548.5" y2="75.00" stroke="#ddd" stroke-dasharray="3,2"></line><line x1="649.4" y1="535.30" x2="649.4" y2="75.00" stroke="#ddd" stroke-dasharray="3,2"></line></g></g><g clip-path="url(#boundsClip-433)"><g class="HeightedLegend clickable"><g class="legendMark"><rect x="704.944" y="262.2" width="130.056" height="45.400000000000006" fill="#fff" opacity="0"></rect><rect x="704.944" y="283.65" width="10" height="2.5" fill="#34983f"></rect><text font-size="14.40" x="719.9" y="273.7" fill="#333"><tspan x="719.944" y="273.71999999999997">Public education</tspan><tspan x="719.944" y="289.55999999999995">expenditure in the</tspan><tspan x="719.944" y="305.4">US</tspan></text></g><g class="legendMark"><rect x="704.944" y="470.7" width="130.056" height="45.400000000000006" fill="#fff" opacity="0"></rect><rect x="704.944" y="492.15" width="10" height="2.5" fill="#3360a9"></rect><text font-size="14.40" x="719.9" y="482.2" fill="#333"><tspan x="719.944" y="482.21999999999997">Private education</tspan><tspan x="719.944" y="498.05999999999995">expenditure in the</tspan><tspan x="719.944" y="513.9">US</tspan></text></g></g><g class="Areas"><rect x="43.49" y="75" width="656.454" height="460.29999999999995" opacity="0" fill="rgba(255,255,255,0)"></rect><path stroke-linecap="round" d="M43.5 504.8L144.5 495.3L245.5 477L255.6 477.5L265.7 478.4L275.8 480.5L285.9 481.1L296 479.2L306.1 479.4L316.2 479.9L326.3 481.2L336.4 481.4L346.5 479.2L356.6 478.4L366.7 474.4L376.8 473.9L386.9 474.4L397 473.6L407.1 472.2L417.2 469.8L427.3 469.8L437.4 469.3L447.5 466.8L457.6 463.4L467.7 462.6L477.8 462.5L487.9 463.5L498 463.2L508.1 463.6L518.2 464.7L528.3 466.1L538.4 467.5L548.5 467.1L558.6 464.3L568.7 461L578.8 459.2L588.9 460.4L599 460.6L609.1 460.4L619.1 458.3L629.2 454L639.3 448.1L649.4 448.8L659.5 447.7L669.6 448.8L679.7 449.2L689.8 449.6L699.9 451.4L699.944 535.3L43.49 535.3" fill="#3360a9" fill-opacity="0.7" class="United-States_1-area"></path><path stroke-linecap="round" d="M43.5 363L144.5 285.1L245.5 171.7L255.6 162L265.7 171.9L275.8 181.8L285.9 177.1L296 160.6L306.1 165.5L316.2 179.7L326.3 192.8L336.4 202.7L346.5 194.7L356.6 200.7L366.7 187.8L376.8 192.7L386.9 202.2L397 199.9L407.1 191.2L417.2 183.9L427.3 185.4L437.4 176.6L447.5 162.7L457.6 145.3L467.7 146L477.8 146L487.9 151.3L498 149.7L508.1 152.9L518.2 154L528.3 153L538.4 154.6L548.5 150.8L558.6 131L568.7 117.6L578.8 114.3L588.9 123.3L599 127.8L609.1 128.6L619.1 121.3L629.2 98.8L639.3 75L649.4 87.2L659.5 94L669.6 106.7L679.7 113.7L689.8 116.4L699.9 118.3L699.9 451.4L689.8 449.6L679.7 449.2L669.6 448.8L659.5 447.7L649.4 448.8L639.3 448.1L629.2 454L619.1 458.3L609.1 460.4L599 460.6L588.9 460.4L578.8 459.2L568.7 461L558.6 464.3L548.5 467.1L538.4 467.5L528.3 466.1L518.2 464.7L508.1 463.6L498 463.2L487.9 463.5L477.8 462.5L467.7 462.6L457.6 463.4L447.5 466.8L437.4 469.3L427.3 469.8L417.2 469.8L407.1 472.2L397 473.6L386.9 474.4L376.8 473.9L366.7 474.4L356.6 478.4L346.5 479.2L336.4 481.4L326.3 481.2L316.2 479.9L306.1 479.4L296 479.2L285.9 481.1L275.8 480.5L265.7 478.4L255.6 477.5L245.5 477L144.5 495.3L43.5 504.8" fill="#34983f" fill-opacity="0.7" class="United-States_0-area"></path><path stroke-linecap="round" d="M43.5 504.8L144.5 495.3L245.5 477L255.6 477.5L265.7 478.4L275.8 480.5L285.9 481.1L296 479.2L306.1 479.4L316.2 479.9L326.3 481.2L336.4 481.4L346.5 479.2L356.6 478.4L366.7 474.4L376.8 473.9L386.9 474.4L397 473.6L407.1 472.2L417.2 469.8L427.3 469.8L437.4 469.3L447.5 466.8L457.6 463.4L467.7 462.6L477.8 462.5L487.9 463.5L498 463.2L508.1 463.6L518.2 464.7L528.3 466.1L538.4 467.5L548.5 467.1L558.6 464.3L568.7 461L578.8 459.2L588.9 460.4L599 460.6L609.1 460.4L619.1 458.3L629.2 454L639.3 448.1L649.4 448.8L659.5 447.7L669.6 448.8L679.7 449.2L689.8 449.6L699.9 451.4" stroke="rgb(43, 80, 141)" stroke-opacity="0.7" stroke-width="0.5" fill="none" class="United-States_1-border"></path><path stroke-linecap="round" d="M43.5 363L144.5 285.1L245.5 171.7L255.6 162L265.7 171.9L275.8 181.8L285.9 177.1L296 160.6L306.1 165.5L316.2 179.7L326.3 192.8L336.4 202.7L346.5 194.7L356.6 200.7L366.7 187.8L376.8 192.7L386.9 202.2L397 199.9L407.1 191.2L417.2 183.9L427.3 185.4L437.4 176.6L447.5 162.7L457.6 145.3L467.7 146L477.8 146L487.9 151.3L498 149.7L508.1 152.9L518.2 154L528.3 153L538.4 154.6L548.5 150.8L558.6 131L568.7 117.6L578.8 114.3L588.9 123.3L599 127.8L609.1 128.6L619.1 121.3L629.2 98.8L639.3 75L649.4 87.2L659.5 94L669.6 106.7L679.7 113.7L689.8 116.4L699.9 118.3" stroke="rgb(44, 127, 53)" stroke-opacity="0.7" stroke-width="0.5" fill="none" class="United-States_0-border"></path></g></g></g><g style="fill: #777;" class="SourcesFooter"><g style="fill: #777;" class="clickable"><text font-size="12.60" x="15.0" y="581.6"><tspan x="15" y="581.58">Source: NCES (2014)</tspan></text></g><text font-size="12.60" x="535.8" y="581.6"><tspan x="535.75" y="581.58"><a target='_blank' style='fill: #777;' href='https://ourworldindata.org/financing-education'>OurWorldInData.org/financing-education</a> • <a style="fill: #777;" href="http://creativecommons.org/licenses/by-sa/4.0/deed.en_US" target="_blank">CC BY-SA</a></tspan></text></g></g></svg>
